X: 237
T:Piper's Fancy
% Nottingham Music Database
S:Kevin Briggs, via EF
P:AB
M:6/8
K:D
P:A
A|"D"dcd d2f|"D"dcd d2f|"A7"ecA Ace|"A7"ecA ABc|
"D"dcd d2f|"D"dcd d2f|"A7"ecA ABc|"D"d3 d2:|
P:B
f/2g/2|"D"a2f a2f|"D"ded dfa|"Em"b2g b2g|"Em"efe "A7"efg|
"D"a2f a2f|"Bm"def d2f|"A7"ecA ABc|"D"d3 d2:|


